X:1
T:Title
%%score { ( 1 3 4 ) | ( 2 5 ) }
L:1/8
M:4/4
K:Ab
V:1 treble nm="Grand Piano"
V:3 treble 
V:4 treble 
V:2 bass 
V:5 bass 
V:1
 z4 z2[Q:1/4=94] [CE]2 | [CE]2 [CE][CE] F2 FF | [CE]4 z2 EE | A4 [FB]4 | G6 z2 | %5
 [=EG]2 [EG][EG] AAAA | z4 z2 .[Ec]2 | %7
[M:19/16] z/ z/ z/ z/ z/ z/ z/ z/ z/ z/ z/ z/ z [EG]/-[EG]-<[EG] |[M:3/4] [CEA]6 |] %9
V:2
 z4 z2 [A,,A,]2 | [A,,A,]2 [A,,A,][A,,A,] [D,A,D]2 [D,A,D][D,A,D] | [A,,A,]4 z2 [A,C][A,C] | %3
 [A,CE]2 [F,C]F, D,2 B,,2 | [E,B,E]6 z2 | [C,C]2 [C,C][C,C] [F,CF][F,CF][F,CF][F,CF] | %6
 [D,D]2 [C,=A,]2 [B,,B,]2 C,D, |[M:19/16] E,-<E,C,-<C,B,,/-B,,/-B,,-<B,, z D3/2 |[M:3/4] A,,6 |] %9
V:3
 x8 | x8 | x8 | z2 F2 z4 | x8 | x8 | [FB]2 [Fc]2 [Fd]2 F-[DFB] | %7
[M:19/16] [CEA]-<[CEA][A,EA]-<[A,EA][DFB]/-[DFB]/-[DFB]-<[DFB].B,3/2 z |[M:3/4] x6 |] %9
V:4
 x8 | x8 | x8 | z2 z C D2 D2 | x8 | x8 | x8 |[M:19/16] x19/2 |[M:3/4] x6 |] %9
V:5
 x8 | x8 | x8 | x8 | x8 | x8 | x8 |[M:19/16] z/ z/ z/ z/ z/ z/ z/ z/ z/ z/ z/ z/ z E,/-E,-<E, | %8
[M:3/4] x6 |] %9

